X:1
T: Glencairn
C:Alexander Walker
R:Jig
Q:180
K:F
M:6/8
L:1/16
F2A2B2 c2A2c2|f2e2f2 a2g2f2|F2A2c2 f2e2f2|g2G2G2 G4A2|F2A2B2 c2A2c2|f2e2f2 a2g2f2|d2f2d2 c2A2c2|A2G2F2 F6|
F2A2B2 c2A2c2|f2e2f2 a2g2f2|F2A2c2 f2e2f2|g2G2G2 G4A2|F2A2B2 c2A2c2|f2e2f2 a2g2f2|d2f2d2 c2A2c2|A2G2F2 F4c2|
f4F2 F2A2c2|c2A2c2 G2A2c2|f4F2 F2G2A2|F2D2D2 D4c2|f4F2 F2G2A2|c2d2e2 f2e2d2|c2B2A2 G2A2c2|A2F2F2 F4c2|
f4F2 F2A2c2|c2A2c2 G2A2c2|f4F2 F2G2A2|F2D2D2 D4c2|f4F2 F2G2A2|c2d2e2 f2e2d2|c2b2a2 g2f2g2|a2f2f2 f6||
